src/assets/svg/github-icon.svg

<svg width="38" height="38" viewBox="0 0 38 38" fill="none" xmlns="http://www.w3.org/2000/svg">
<circle cx="19" cy="19" r="19" fill="#4AA200"/>
<g clip-path="url(#clip0_131:94)">
<path d="M8.51709 18.9998C8.51709 16.1062 9.5408 13.6356 11.5882 11.5882C13.6356 9.5408 16.1062 8.51709 18.9999 8.51709C21.8935 8.51709 24.3641 9.5408 26.4115 11.5882C28.4589 13.6356 29.4826 16.1062 29.4826 18.9998C29.4826 21.8935 28.4589 24.3641 26.4115 26.4115C24.3641 28.4589 21.8935 29.4826 18.9999 29.4826C16.1062 29.4826 13.6356 28.4589 11.5882 26.4115C9.5408 24.3641 8.51709 21.8935 8.51709 18.9998ZM9.66364 18.9998C9.66364 21.5659 10.5782 23.7635 12.4072 25.5925C14.2362 27.4215 16.4337 28.3361 18.9999 28.3361C21.5659 28.3361 23.7635 27.4215 25.5925 25.5925C27.4215 23.7635 28.3361 21.5659 28.3361 18.9998C28.3361 16.4337 27.4216 14.2362 25.5925 12.4072C23.7635 10.5782 21.5659 9.66364 18.9999 9.66364C16.4337 9.66364 14.2362 10.5782 12.4072 12.4072C10.5782 14.2362 9.66364 16.4337 9.66364 18.9998ZM12.6119 21.252C12.5573 21.1974 12.5573 21.1428 12.6119 21.0882C12.7211 20.979 12.8576 20.9381 13.0214 20.9654C13.1852 20.9927 13.2807 21.0199 13.308 21.0472C13.4991 21.1291 13.7107 21.3134 13.9427 21.6001C14.1747 21.8867 14.359 22.0846 14.4955 22.1938C15.1507 22.7398 15.8195 22.7807 16.502 22.3166C16.5566 22.1256 16.6453 21.9618 16.7681 21.8252C16.891 21.6888 17.007 21.5932 17.1162 21.5386C17.2254 21.484 17.4165 21.4021 17.6895 21.2929C16.7886 21.211 16.0584 21.054 15.4988 20.822C14.9391 20.59 14.4955 20.2965 14.1679 19.9416C13.7311 19.4502 13.465 18.8087 13.3694 18.0171C13.2739 17.2254 13.3353 16.502 13.5537 15.8468C13.7175 15.4373 13.9495 15.0688 14.2498 14.7412C14.0314 14.0587 14.0724 13.2807 14.3726 12.4072C15.2462 12.4617 16.0379 12.762 16.7476 13.308C18.1126 12.9531 19.5321 12.9395 21.0062 13.2671C21.1973 13.1306 21.4908 12.96 21.8866 12.7552C22.2824 12.5505 22.7807 12.4344 23.3812 12.4071C23.4904 12.7074 23.5655 13.0623 23.6065 13.4718C23.6474 13.8813 23.6269 14.2634 23.545 14.6183C24.1729 15.2735 24.5005 16.1471 24.5278 17.239C24.5278 18.1126 24.3777 18.836 24.0774 19.4093C23.7771 19.9826 23.2448 20.4603 22.4804 20.8424C21.9617 21.0882 21.2792 21.2383 20.433 21.2929C20.8152 21.484 21.095 21.6819 21.2724 21.8866C21.4499 22.0914 21.5659 22.4121 21.6205 22.8489V24.1388L21.6615 25.3877C21.7433 25.5242 21.8389 25.6402 21.9481 25.7358C22.0573 25.8314 22.1529 25.8996 22.2347 25.9406C22.3166 25.9815 22.3439 26.0429 22.3166 26.1248C22.2893 26.2067 22.1801 26.2477 21.9891 26.2477C21.525 26.2477 21.1564 26.0839 20.8835 25.7563C20.8016 25.6198 20.7606 25.456 20.7606 25.2649V23.2994C20.7606 23.081 20.706 22.924 20.5968 22.8285C20.4876 22.7329 20.3784 22.6715 20.2692 22.6442V25.2239C20.2692 25.688 20.3238 25.9883 20.433 26.1248C20.5422 26.2613 20.6105 26.3978 20.6378 26.5343C20.6651 26.5616 20.6446 26.582 20.5764 26.5957C20.5081 26.6093 20.3921 26.5889 20.2283 26.5343C19.8734 26.4524 19.6277 26.2681 19.4912 25.9815C19.3547 25.6948 19.2865 25.3877 19.2865 25.0601V22.5214H18.7541V25.0602C18.7541 25.3878 18.6859 25.7017 18.5494 26.002C18.3583 26.3842 18.0034 26.5889 17.4848 26.6162C17.4029 26.5889 17.3619 26.5616 17.3619 26.5343C17.3892 26.507 17.4711 26.3705 17.6076 26.1249C17.6349 26.0703 17.669 25.9611 17.71 25.7973C17.7509 25.6335 17.7714 25.4424 17.7714 25.224V22.6442C17.6622 22.6715 17.5598 22.7329 17.4643 22.8285C17.3687 22.9241 17.321 23.081 17.321 23.2994V25.2649C17.321 25.456 17.28 25.6198 17.1981 25.7563C16.9524 26.0839 16.5839 26.2477 16.0925 26.2477C15.9014 26.2477 15.7922 26.2068 15.7649 26.1249C15.7376 26.0703 15.7445 26.0225 15.7854 25.9815C15.8264 25.9406 15.8878 25.8928 15.9697 25.8382C16.0516 25.7836 16.1062 25.7426 16.1335 25.7154C16.2427 25.6335 16.3246 25.5243 16.3792 25.3878C16.4611 25.2786 16.4816 24.992 16.4406 24.5279C16.3997 24.0638 16.3928 23.7635 16.4201 23.627C15.7103 23.8727 14.9869 23.7498 14.2498 23.2585C14.0315 23.0401 13.8131 22.7261 13.5947 22.3167C13.4309 22.0164 13.1033 21.6615 12.6119 21.252Z" fill="#393D48"/>
</g>
<defs>
<clipPath id="clip0_131:94">
<rect width="20.9655" height="20.9655" fill="white" transform="translate(8.51709 8.51709)"/>
</clipPath>
</defs>
</svg>

<svg width="38" height="38" fill="none" xmlns="http://www.w3.org/2000/svg"><circle cx="19" cy="19" r="19" fill="#4AA200"/><g clip-path="url(#a)"><path d="M8.517 19c0-2.894 1.024-5.364 3.071-7.412 2.048-2.047 4.518-3.07 7.412-3.07 2.893 0 5.364 1.023 7.412 3.07 2.047 2.048 3.07 4.518 3.07 7.412 0 2.893-1.023 5.364-3.07 7.412-2.048 2.047-4.518 3.07-7.412 3.07s-5.364-1.023-7.412-3.07c-2.047-2.048-3.07-4.518-3.07-7.412zm1.147 0c0 2.566.914 4.764 2.743 6.593 1.83 1.829 4.027 2.743 6.593 2.743s4.764-.914 6.593-2.743c1.829-1.83 2.743-4.027 2.743-6.593s-.914-4.764-2.743-6.593c-1.83-1.829-4.027-2.743-6.593-2.743s-4.764.914-6.593 2.743c-1.829 1.83-2.743 4.027-2.743 6.593zm2.948 2.252c-.055-.055-.055-.11 0-.164.11-.109.246-.15.41-.123.163.028.259.055.286.082.191.082.403.266.635.553.232.287.416.485.553.594.655.546 1.323.587 2.006.123.055-.191.143-.355.266-.492.123-.136.239-.232.348-.286.11-.055.3-.137.573-.246-.9-.082-1.63-.239-2.19-.471-.56-.232-1.004-.525-1.331-.88-.437-.492-.703-1.133-.799-1.925-.095-.792-.034-1.515.185-2.17.163-.41.396-.778.696-1.106-.219-.682-.178-1.46.123-2.334a4.251 4.251 0 0 1 2.375.901c1.365-.355 2.784-.368 4.258-.04.191-.137.485-.308.88-.513.396-.205.895-.32 1.495-.348.11.3.184.655.226 1.065.04.41.02.791-.062 1.146.628.655.955 1.53.983 2.621 0 .874-.15 1.597-.45 2.17-.3.574-.833 1.051-1.598 1.433-.518.246-1.2.396-2.047.45.382.192.662.39.84.595.177.204.293.525.348.962v1.29l.04 1.249c.082.136.178.252.287.348.11.095.205.164.287.205.082.04.109.102.082.184-.028.082-.137.123-.328.123-.464 0-.833-.164-1.105-.492a.938.938 0 0 1-.123-.491v-1.966c0-.218-.055-.375-.164-.47a.799.799 0 0 0-.328-.185v2.58c0 .464.055.764.164.9.11.137.177.274.205.41.027.028.007.048-.062.062-.068.013-.184-.007-.348-.062-.355-.082-.6-.266-.737-.552a2.116 2.116 0 0 1-.204-.922v-2.539h-.533v2.54c0 .327-.068.64-.205.941-.19.382-.546.587-1.064.614-.082-.027-.123-.054-.123-.082.027-.027.11-.163.246-.41a2.383 2.383 0 0 0 .164-.9v-2.58a.662.662 0 0 0-.308.184c-.095.096-.143.253-.143.471v1.966a.938.938 0 0 1-.123.491c-.246.328-.614.492-1.105.492-.192 0-.3-.041-.328-.123-.027-.055-.02-.102.02-.143.041-.041.103-.09.185-.144a1.23 1.23 0 0 0 .164-.123.745.745 0 0 0 .245-.327c.082-.11.103-.396.062-.86-.041-.464-.048-.764-.02-.901-.71.246-1.434.123-2.171-.368-.219-.219-.437-.533-.655-.942-.164-.3-.492-.655-.983-1.065z" fill="#393D48"/></g><defs><clipPath id="a"><path fill="#fff" transform="translate(8.517 8.517)" d="M0 0h20.965v20.965H0z"/></clipPath></defs></svg>
